SF_Symbols/cloud.heavyrain.svg

<?xml version="1.0" encoding="UTF-8"?>
<svg xmlns="http://www.w3.org/2000/svg" xmlns:xlink="http://www.w3.org/1999/xlink" width="24" height="24" viewBox="0 0 24 24" version="1.1">
<g id="surface1">
<path style=" stroke:none;fill-rule:nonzero;fill:rgb(100%,100%,100%);fill-opacity:1;" d="M 5.238281 15.472656 L 17.488281 15.472656 C 18.296875 15.472656 19.042969 15.332031 19.726562 15.050781 C 20.417969 14.765625 21.015625 14.371094 21.523438 13.863281 C 22.035156 13.359375 22.429688 12.773438 22.707031 12.109375 C 22.988281 11.445312 23.132812 10.734375 23.132812 9.976562 C 23.132812 9.1875 22.980469 8.464844 22.675781 7.804688 C 22.382812 7.140625 21.964844 6.566406 21.425781 6.078125 C 20.890625 5.585938 20.265625 5.203125 19.550781 4.933594 C 18.832031 4.664062 18.054688 4.53125 17.21875 4.53125 C 16.8125 3.71875 16.289062 3.015625 15.652344 2.417969 C 15.019531 1.8125 14.300781 1.34375 13.488281 1.015625 C 12.679688 0.6875 11.800781 0.523438 10.84375 0.523438 C 9.917969 0.523438 9.042969 0.695312 8.21875 1.035156 C 7.40625 1.371094 6.675781 1.839844 6.03125 2.4375 C 5.386719 3.035156 4.863281 3.734375 4.460938 4.53125 C 4.066406 5.324219 3.828125 6.179688 3.75 7.09375 C 3.152344 7.265625 2.613281 7.550781 2.140625 7.945312 C 1.667969 8.332031 1.292969 8.804688 1.015625 9.363281 C 0.738281 9.925781 0.601562 10.550781 0.601562 11.25 C 0.601562 12.027344 0.78125 12.738281 1.144531 13.382812 C 1.511719 14.019531 2.042969 14.53125 2.734375 14.910156 C 3.425781 15.285156 4.261719 15.472656 5.238281 15.472656 Z M 5.21875 13.894531 C 4.542969 13.894531 3.980469 13.78125 3.53125 13.550781 C 3.085938 13.320312 2.746094 13.011719 2.515625 12.621094 C 2.292969 12.226562 2.179688 11.785156 2.179688 11.300781 C 2.179688 10.707031 2.363281 10.167969 2.734375 9.679688 C 3.101562 9.1875 3.707031 8.828125 4.550781 8.605469 C 4.824219 8.53125 5.019531 8.425781 5.132812 8.28125 C 5.242188 8.136719 5.3125 7.925781 5.339844 7.648438 C 5.390625 6.839844 5.574219 6.097656 5.882812 5.425781 C 6.199219 4.75 6.605469 4.164062 7.105469 3.671875 C 7.605469 3.171875 8.175781 2.785156 8.8125 2.515625 C 9.457031 2.238281 10.136719 2.101562 10.84375 2.101562 C 11.957031 2.101562 12.941406 2.398438 13.796875 2.988281 C 14.652344 3.574219 15.34375 4.414062 15.878906 5.507812 C 15.988281 5.75 16.128906 5.921875 16.292969 6.019531 C 16.457031 6.113281 16.6875 6.15625 16.984375 6.15625 C 17.957031 6.15625 18.78125 6.335938 19.460938 6.691406 C 20.144531 7.039062 20.664062 7.507812 21.019531 8.09375 C 21.375 8.675781 21.550781 9.320312 21.550781 10.015625 C 21.550781 10.734375 21.378906 11.386719 21.03125 11.96875 C 20.679688 12.554688 20.207031 13.023438 19.609375 13.371094 C 19.011719 13.71875 18.335938 13.894531 17.585938 13.894531 Z M 3.472656 22.894531 L 6.375 17.871094 C 6.460938 17.714844 6.484375 17.558594 6.445312 17.40625 C 6.40625 17.257812 6.308594 17.136719 6.15625 17.050781 C 6.007812 16.96875 5.855469 16.945312 5.703125 16.984375 C 5.550781 17.023438 5.433594 17.121094 5.347656 17.28125 L 2.4375 22.324219 C 2.359375 22.460938 2.335938 22.605469 2.367188 22.757812 C 2.40625 22.914062 2.503906 23.035156 2.65625 23.121094 C 2.804688 23.199219 2.957031 23.21875 3.109375 23.171875 C 3.265625 23.132812 3.386719 23.039062 3.472656 22.894531 Z M 7.410156 22.894531 L 10.300781 17.871094 C 10.394531 17.714844 10.417969 17.558594 10.371094 17.40625 C 10.332031 17.257812 10.238281 17.136719 10.09375 17.050781 C 9.945312 16.96875 9.792969 16.945312 9.640625 16.984375 C 9.488281 17.023438 9.367188 17.121094 9.277344 17.28125 L 6.375 22.324219 C 6.296875 22.460938 6.273438 22.605469 6.304688 22.757812 C 6.34375 22.914062 6.441406 23.035156 6.59375 23.121094 C 6.738281 23.199219 6.886719 23.21875 7.046875 23.171875 C 7.203125 23.132812 7.324219 23.039062 7.410156 22.894531 Z M 11.339844 22.894531 L 14.230469 17.871094 C 14.324219 17.714844 14.34375 17.558594 14.300781 17.40625 C 14.261719 17.257812 14.167969 17.136719 14.023438 17.050781 C 13.871094 16.96875 13.71875 16.945312 13.570312 16.984375 C 13.417969 17.023438 13.296875 17.121094 13.203125 17.28125 L 10.300781 22.324219 C 10.222656 22.460938 10.199219 22.605469 10.234375 22.757812 C 10.273438 22.914062 10.367188 23.035156 10.519531 23.121094 C 10.664062 23.199219 10.816406 23.21875 10.972656 23.171875 C 11.132812 23.132812 11.253906 23.039062 11.339844 22.894531 Z M 15.238281 22.90625 L 18.15625 17.851562 C 18.242188 17.707031 18.265625 17.554688 18.226562 17.398438 C 18.1875 17.238281 18.09375 17.125 17.941406 17.050781 C 17.796875 16.972656 17.644531 16.953125 17.488281 16.992188 C 17.335938 17.027344 17.21875 17.117188 17.140625 17.269531 L 14.238281 22.300781 C 14.15625 22.453125 14.128906 22.605469 14.160156 22.757812 C 14.199219 22.914062 14.292969 23.035156 14.4375 23.121094 C 14.574219 23.199219 14.722656 23.21875 14.882812 23.171875 C 15.039062 23.132812 15.15625 23.042969 15.238281 22.90625 Z M 15.238281 22.90625 "/>
</g>
</svg>

<svg xmlns="http://www.w3.org/2000/svg" width="24" height="24"><path style="stroke:none;fill-rule:nonzero;fill:#fff;fill-opacity:1" d="M5.238 15.473h12.25c.809 0 1.555-.141 2.239-.422a5.48 5.48 0 0 0 2.98-2.942c.285-.675.43-1.398.426-2.132 0-.79-.153-1.512-.457-2.172a5.065 5.065 0 0 0-1.25-1.727 5.756 5.756 0 0 0-1.875-1.144 6.585 6.585 0 0 0-2.332-.403 7.367 7.367 0 0 0-1.567-2.113 6.77 6.77 0 0 0-2.164-1.402C12.68.687 11.801.523 10.844.523c-.926 0-1.801.172-2.625.512A7.34 7.34 0 0 0 4.46 4.531c-.399.801-.64 1.672-.711 2.563a4.35 4.35 0 0 0-1.61.851c-.472.387-.847.86-1.124 1.418-.278.563-.414 1.188-.414 1.887 0 .777.18 1.488.543 2.133.367.637.898 1.148 1.59 1.527.69.375 1.527.563 2.503.563Zm-.02-1.578c-.675 0-1.238-.114-1.687-.344-.445-.23-.785-.54-1.015-.93a2.646 2.646 0 0 1-.336-1.32c0-.594.183-1.133.554-1.621.368-.492.973-.852 1.817-1.075.273-.074.469-.18.582-.324.11-.144.18-.355.207-.633.05-.808.234-1.55.543-2.222.3-.653.715-1.246 1.222-1.754.5-.5 1.07-.887 1.707-1.156a5.04 5.04 0 0 1 2.032-.414c1.113 0 2.097.296 2.953.886.855.586 1.547 1.426 2.082 2.52.11.242.25.414.414.512.164.093.395.136.691.136.973 0 1.797.18 2.477.535.684.348 1.203.817 1.559 1.403.355.582.53 1.226.53 1.922 0 .718-.171 1.37-.519 1.953a3.945 3.945 0 0 1-1.422 1.402c-.597.348-1.273.524-2.023.524Zm-1.745 9 2.902-5.024a.626.626 0 0 0 .07-.465.583.583 0 0 0-.289-.355.562.562 0 0 0-.809.23l-2.91 5.043a.6.6 0 0 0-.07.434c.04.156.137.277.29.363.136.078.3.098.452.05a.577.577 0 0 0 .364-.276Zm3.937 0 2.89-5.024a.56.56 0 0 0 .071-.465.575.575 0 0 0-.277-.355.574.574 0 0 0-.816.23l-2.903 5.043a.6.6 0 0 0-.07.434c.039.156.136.277.289.363.136.078.3.098.453.05a.59.59 0 0 0 .363-.276Zm3.93 0 2.89-5.024a.582.582 0 0 0-.207-.82.596.596 0 0 0-.453-.067.584.584 0 0 0-.367.297l-2.902 5.043a.58.58 0 0 0-.067.434c.04.156.133.277.286.363.136.078.3.098.453.05a.575.575 0 0 0 .367-.276Zm3.898.011 2.918-5.054a.58.58 0 0 0 .07-.454.495.495 0 0 0-.285-.347.61.61 0 0 0-.453-.059.51.51 0 0 0-.347.278l-2.903 5.03a.645.645 0 0 0-.078.458c.04.156.133.277.277.363a.555.555 0 0 0 .446.05.568.568 0 0 0 .355-.265Zm0 0"/></svg>
